Numix-Light/scalable/mimetypes/x-office-drawing-symbolic.svg

<?xml version="1.0" encoding="UTF-8" standalone="no"?>
<svg
   xmlns:dc="http://purl.org/dc/elements/1.1/"
   xmlns:cc="http://creativecommons.org/ns#"
   xmlns:rdf="http://www.w3.org/1999/02/22-rdf-syntax-ns#"
   xmlns:svg="http://www.w3.org/2000/svg"
   xmlns="http://www.w3.org/2000/svg"
   xmlns:sodipodi="http://sodipodi.sourceforge.net/DTD/sodipodi-0.dtd"
   xmlns:inkscape="http://www.inkscape.org/namespaces/inkscape"
   width="16"
   height="16"
   viewBox="0 0 16 16"
   id="svg2"
   version="1.1"
   inkscape:version="0.91 r"
   sodipodi:docname="x-office-presentation-drawing.svg">
  <metadata
     id="metadata16">
    <rdf:RDF>
      <cc:Work
         rdf:about="">
        <dc:format>image/svg+xml</dc:format>
        <dc:type
           rdf:resource="http://purl.org/dc/dcmitype/StillImage" />
        <dc:title></dc:title>
      </cc:Work>
    </rdf:RDF>
  </metadata>
  <defs
     id="defs14" />
  <sodipodi:namedview
     pagecolor="#ffffff"
     bordercolor="#666666"
     borderopacity="1"
     objecttolerance="10"
     gridtolerance="10"
     guidetolerance="10"
     inkscape:pageopacity="0"
     inkscape:pageshadow="2"
     inkscape:window-width="1920"
     inkscape:window-height="1056"
     id="namedview12"
     showgrid="true"
     inkscape:zoom="20.85965"
     inkscape:cx="-9.697005"
     inkscape:cy="5.3459879"
     inkscape:window-x="0"
     inkscape:window-y="24"
     inkscape:window-maximized="1"
     inkscape:current-layer="svg2">
    <inkscape:grid
       type="xygrid"
       id="grid3004" />
  </sodipodi:namedview>
  <path
     style="fill:#353535;fill-opacity:1"
     d="M 2.6679688,1 C 2.3242188,1 2,1.3386309 2,1.6972656 L 2,14.302734 C 2,14.640991 2.3437498,15 2.6679688,15 L 13.332031,15 C 13.65625,15 14,14.640991 14,14.302734 L 14,5 10,1 Z M 3,2 10,2 10,4.3828125 C 10,4.6819115 10.337417,5.1155828 10.613281,5 L 13,5 13,14 3,14 Z"
     id="path4-2"
     inkscape:connector-curvature="0"
     sodipodi:nodetypes="ssssssccsccsccccc" />
  <path
     style="fill:#ffffff;fill-opacity:0.39200003"
     d="m -3.898306,1.0167263 3.996396,3.9999998 -3.383784,0 c -0.299099,0 -0.612612,-0.317117 -0.612612,-0.616216 z"
     id="path8"
     inkscape:connector-curvature="0"
     sodipodi:nodetypes="ccssc" />
  <path
     style="fill:#353535;fill-opacity:1"
     d="m 5,12 0,-6 6,0 0,6 -4,0 0,-3 2,0 0,1 -1,0 0,1 2,0 0,-4 -4,0 0,5 z"
     id="path10"
     inkscape:connector-curvature="0"
     sodipodi:nodetypes="ccccccccccccccc" />
</svg>

<svg xmlns="http://www.w3.org/2000/svg" viewBox="0 0 16 16">
 <path d="m 2.668 1 c -0.344 0 -0.668 0.339 -0.668 0.697 l 0 12.605 c 0 0.338 0.344 0.697 0.668 0.697 l 10.664 0 c 0.324 0 0.668 -0.359 0.668 -0.697 l 0 -9.303 -4 -4 m -7 1 7 0 0 2.383 c 0 0.299 0.337 0.733 0.613 0.617 l 2.387 0 0 9 -10 0" style="fill:#353535;fill-opacity:1"/>
 <path d="m -3.898 1.017 3.996 4 -3.384 0 c -0.299 0 -0.613 -0.317 -0.613 -0.616 z" style="fill:#fff;fill-opacity:0.392"/>
 <path d="m 5 12 0 -6 6 0 0 6 -4 0 0 -3 2 0 0 1 -1 0 0 1 2 0 0 -4 -4 0 0 5 z" style="fill:#353535;fill-opacity:1"/>
</svg>
